Waterleaf/48x48/actions/laptopbattery.svg

<?xml version="1.0" encoding="UTF-8" standalone="no"?>
<!-- Created with Inkscape (http://www.inkscape.org/) -->

<svg
   xmlns:dc="http://purl.org/dc/elements/1.1/"
   xmlns:cc="http://creativecommons.org/ns#"
   xmlns:rdf="http://www.w3.org/1999/02/22-rdf-syntax-ns#"
   xmlns:svg="http://www.w3.org/2000/svg"
   xmlns="http://www.w3.org/2000/svg"
   xmlns:sodipodi="http://sodipodi.sourceforge.net/DTD/sodipodi-0.dtd"
   xmlns:inkscape="http://www.inkscape.org/namespaces/inkscape"
   id="svg7384"
   style="enable-background:new"
   height="48"
   width="48"
   version="1.1"
   sodipodi:docname="laptopbattery.svg"
   inkscape:version="0.92.1 r15371">
  <sodipodi:namedview
     pagecolor="#ffffff"
     bordercolor="#666666"
     borderopacity="1"
     objecttolerance="10"
     gridtolerance="10"
     guidetolerance="10"
     inkscape:pageopacity="0"
     inkscape:pageshadow="2"
     inkscape:window-width="1362"
     inkscape:window-height="695"
     id="namedview11"
     showgrid="false"
     fit-margin-top="0"
     fit-margin-left="0"
     fit-margin-right="0"
     fit-margin-bottom="0"
     inkscape:zoom="10.729167"
     inkscape:cx="24"
     inkscape:cy="24"
     inkscape:window-x="0"
     inkscape:window-y="0"
     inkscape:window-maximized="1"
     inkscape:current-layer="svg7384" />
  <metadata
     id="metadata90">
    <rdf:RDF>
      <cc:Work
         rdf:about="">
        <dc:format>image/svg+xml</dc:format>
        <dc:type
           rdf:resource="http://purl.org/dc/dcmitype/StillImage" />
        <dc:title>Paper Symbolic Icon Theme</dc:title>
      </cc:Work>
    </rdf:RDF>
  </metadata>
  <title
     id="title8473">Paper Symbolic Icon Theme</title>
  <defs
     id="defs7386">
    <filter
       id="filter7554"
       style="color-interpolation-filters:sRGB">
      <feBlend
         id="feBlend7556"
         in2="BackgroundImage"
         mode="darken" />
    </filter>
    <filter
       style="color-interpolation-filters:sRGB"
       id="filter7554-9">
      <feBlend
         mode="darken"
         in2="BackgroundImage"
         id="feBlend7556-1" />
    </filter>
    <filter
       inkscape:collect="always"
       style="color-interpolation-filters:sRGB"
       id="filter4551"
       x="-0.0163125"
       width="1.032625"
       y="-0.0094909091"
       height="1.0189818">
      <feGaussianBlur
         inkscape:collect="always"
         stdDeviation="0.2175"
         id="feGaussianBlur4553" />
    </filter>
    <filter
       inkscape:collect="always"
       style="color-interpolation-filters:sRGB"
       id="filter4502"
       x="-0.018222222"
       width="1.0364444"
       y="-0.0089454548"
       height="1.0178909">
      <feGaussianBlur
         inkscape:collect="always"
         stdDeviation="0.205"
         id="feGaussianBlur4504" />
    </filter>
  </defs>
  <path
     inkscape:connector-curvature="0"
     d="M 10.6,5 V 8.9285715 H 1 V 12.857143 56.071429 C 1,58.247857 2.4272,60 4.2,60 H 29.8 C 31.5728,60 33,58.247857 33,56.071429 V 12.857143 8.9285715 H 23.4 V 5 Z"
     style="opacity:0.2;fill:#000000;stroke-width:3.54562116;filter:url(#filter4551)"
     id="path6763-5"
     sodipodi:nodetypes="ccccssssccccc"
     transform="scale(0.75)" />
  <rect
     style="opacity:0.2;fill:#000000;fill-opacity:1;stroke:none;stroke-width:1.02826869;stroke-miterlimit:4;stroke-dasharray:none;stroke-opacity:1;filter:url(#filter4502);enable-background:new"
     id="rect4515-6"
     width="27"
     height="55"
     x="36"
     y="5"
     ry="1.933141"
     transform="scale(0.75)" />
  <path
     inkscape:connector-curvature="0"
     d="M 7.95,2.9999999 V 5.9464285 H 0.75 V 8.8928573 41.303572 C 0.75,42.935893 1.8204,44.25 3.15,44.25 h 19.2 c 1.3296,0 2.4,-1.314107 2.4,-2.946428 V 8.8928573 5.9464285 h -7.2 V 2.9999999 Z"
     style="opacity:1;fill:#f9ce1d;stroke-width:2.65921593"
     id="path6763"
     sodipodi:nodetypes="ccccssssccccc" />
  <path
     inkscape:connector-curvature="0"
     d="M 0.75,17.732143 V 41.303572 C 0.75,42.935893 1.8204,44.25 3.15,44.25 h 19.2 c 1.3296,0 2.4,-1.314107 2.4,-2.946428 V 17.732143 Z"
     style="fill:#263238;stroke-width:2.65921593"
     id="path6765"
     sodipodi:nodetypes="csssscc" />
  <rect
     style="opacity:1;fill:#ffffff;fill-opacity:1;stroke:#000000;stroke-width:0.74987727;stroke-miterlimit:4;stroke-dasharray:none;stroke-opacity:1"
     id="rect4515"
     width="19.500122"
     height="40.500122"
     x="27.374939"
     y="3.3749385"
     ry="1.4234991" />
</svg>

<svg enable-background="new" version="1.1" viewBox="0 0 48 48" xmlns="http://www.w3.org/2000/svg">
    <title>Paper Symbolic Icon Theme</title>
    <defs>
        <filter id="filter4551" x="-.0163125" y="-.0094909091" width="1.032625" height="1.0189818" color-interpolation-filters="sRGB">
            <feGaussianBlur stdDeviation="0.2175"/>
        </filter>
        <filter id="filter4502" x="-.018222222" y="-.0089454548" width="1.0364444" height="1.0178909" color-interpolation-filters="sRGB">
            <feGaussianBlur stdDeviation="0.205"/>
        </filter>
    </defs>
    <path transform="scale(.75)" d="m10.6 5v3.9285715h-9.6v47.142858c0 2.176428 1.4272 3.928571 3.2 3.928571h25.6c1.7728 0 3.2-1.752143 3.2-3.928571v-47.142858h-9.6v-3.9285715z" filter="url(#filter4551)" opacity=".2" stroke-width="3.5456212"/>
    <rect transform="scale(.75)" x="36" y="5" width="27" height="55" ry="1.933141" enable-background="new" filter="url(#filter4502)" opacity=".2"/>
    <path d="m7.95 2.9999999v2.9464286h-7.2v35.357144c0 1.632321 1.0704 2.946428 2.4 2.946428h19.2c1.3296 0 2.4-1.314107 2.4-2.946428v-35.357144h-7.2v-2.9464286z" fill="#f9ce1d" stroke-width="2.6592159"/>
    <path d="m0.75 17.732143v23.571429c0 1.632321 1.0704 2.946428 2.4 2.946428h19.2c1.3296 0 2.4-1.314107 2.4-2.946428v-23.571429z" fill="#263238" stroke-width="2.6592159"/>
    <rect x="27.374939" y="3.3749385" width="19.500122" height="40.500122" ry="1.4234991" fill="#fff" stroke="#000" stroke-width=".74987727"/>
</svg>
